packages/foundations/assets/icons/functional/images/arrows/arrow_left.svg

<svg xmlns="http://www.w3.org/2000/svg" width="32" height="32" fill="none"><path fill="#1A1C1F" fill-rule="evenodd" d="M14.853 7.012c-.029.01-.125.034-.213.053-.12.026-1.186 1.058-4.31 4.178-2.283 2.279-4.189 4.216-4.236 4.304-.11.207-.11.699.001.906.046.088 1.94 2.014 4.208 4.278 2.89 2.887 4.183 4.143 4.322 4.2.82.339 1.637-.511 1.293-1.346-.057-.14-1.033-1.142-3.293-3.382l-3.212-3.184 7.84-.003c5.347-.002 7.905-.021 8.044-.06.112-.031.295-.148.408-.261.547-.547.276-1.488-.475-1.649-.194-.042-2.582-.06-8.046-.062l-7.771-.002 3.235-3.211c3.516-3.49 3.398-3.352 3.333-3.895a1.01 1.01 0 0 0-.493-.737c-.154-.088-.532-.164-.635-.127"/></svg>

<svg width="32" height="32" viewBox="0 0 32 32" fill="none" xmlns="http://www.w3.org/2000/svg"><path d="M14.853 7.012 C 14.824 7.022,14.728 7.046,14.640 7.065 C 14.520 7.091,13.454 8.123,10.330 11.243 C 8.047 13.522,6.141 15.459,6.094 15.547 C 5.984 15.754,5.984 16.246,6.095 16.453 C 6.141 16.541,8.035 18.467,10.303 20.731 C 13.193 23.618,14.486 24.874,14.625 24.931 C 15.445 25.270,16.262 24.420,15.918 23.585 C 15.861 23.445,14.885 22.443,12.625 20.203 L 9.413 17.019 17.253 17.016 C 22.600 17.014,25.158 16.995,25.297 16.956 C 25.409 16.925,25.592 16.808,25.705 16.695 C 26.252 16.148,25.981 15.207,25.230 15.046 C 25.036 15.004,22.648 14.986,17.184 14.984 L 9.413 14.982 12.648 11.771 C 16.164 8.281,16.046 8.419,15.981 7.876 C 15.946 7.579,15.753 7.290,15.488 7.139 C 15.334 7.051,14.956 6.975,14.853 7.012 " fill="#1A1C1F" stroke="none" fill-rule="evenodd"></path></svg>
